X:1
T:Title
%%score { 1 | 2 } { ( 3 5 ) | 4 }
L:1/8
Q:1/4=110
M:4/4
K:C
V:1 treble nm="Grand Piano, Staff 1"
V:2 treble 
V:3 treble nm="Choir Pad, Sealed Was the Tomb"
V:5 treble 
V:4 bass 
V:1
 G2 AG G2 G2 | G2 c2 c2 c2 | e2 c2 cBAB | c6 z2 | G2 GG A4 | A2 AA G2 G2 | G2 Gc c2 A2 | c2 B2 c4 | %8
w: By~Isaac~Hickman~Meredith,~adapted~from~Gounod * * * *||||||||
 G2 GG A4 | A2 AA G2 G2 | G2 Gc c2 A2 | c2 B2 c4 | G2 AA B4 | B2 cc d2 d2 | d2 cc B2 G2 | %15
w: |||||||
 B2 A2 G4 | G2 GG A4 | A2 AA G2 G2 | G2 Gc c2 A2 | c2 B2 c4 | E2 A^G BAcA | A2 ^G2 z GGG | %22
w: |||||||
 B2 A2 z ABc | B6 z2 | d2 c>c B2 B2 | B2 B>c B2 A2 | A2 GF EAcB | A6 ef | g2 ab c'2 bg | %29
w: |||||||
 a4 g2 z g | c'2 d'e' d'2 c'b | a4 g2 z g | g2 ab c'2 bg | a4 g2 z g | c'2 c'c' c'b d'>c' | %35
w: ||||||
 c'baa .c'2 ^fg | a4 .g2 z g | e'2 c'c' c'b d'>c' | .c'2 c2 C4- | C4 z4 |] %40
w: |||||
V:2
 E2 EE F2 F2 | E2 E2 F2 ^F2 | G2 G2 F2 F2 | [EG]6 z2 | E2 EE E4 | E2 FF F2 F2 | E2 EE F2 F2 | %7
 E2 DE E4 | E2 EE E4 | E2 FF F2 F2 | E2 EE F2 F2 | E2 DE E4 | B,2 CC D4 | D2 EE F2 F2 | %14
 F2 EE D2 B,2 | D2 C2 B,2 F2 | E2 EE E4 | E2 FF F2 F2 | E2 EE F2 F2 | E2 DF E4 | z8 | z8 | z8 | %23
 z8 | E2 E>E E2 E2 | ^G2 G>G E2 E2 | z4 z2 ^GG | E6 EF | G2 AB c2 BG | A4 G2 z G | c2 de d2 cB | %31
 A4 G2 z G | G2 AB c2 BG | A4 G2 z G | c2 cc cc d>c | cBAG .c2 ^FG | [Acf]4 .[Gce]2 z [Gce] | %37
 [egc']2 .[ceg]2 [Bde]2 [fgb]2 | .[ceg]2 [CEG]2[K:bass] [E,G,]4- | [E,G,]4 z4 |] %40
V:3
 C2 CC D2 D2 | C2 C2 C2 C2 | C2 E2 D2 D2 | C6 z2 | C2 CC C4 | C2 DC[K:bass] B,2 B,2 | %6
 _B,2 B,B, A,2 C2 | G,2 G,2 G,4 | C2 CC C4 | C2 DC[K:bass] B,2 B,2 | _B,2 B,B, A,2 C2 | %11
 G,2 G,2 G,4 | G,,D,G,D, G,,D,G,D, | G,,D,G,D, G,,D,G,D, | G,,D,G,D, G,,D,G,D, | %15
 G,,D,^F,D, z D, B,2 | C2 CC C4 | C2 DC[K:bass] B,2 B,2 | _B,2 B,B, A,2 C2 | G,2 G,2 G,4 | %20
 A,,E,CE, A,,E,CE, | E,,E,DE, E,,E,DE, | A,,E,CE, A,,E,CE, | E,,E,^G,B, E2 z2 | %24
 B,2 A,>A, ^G,2 G,2 | D2 D>E D2 C2 | A,2 G,F, E,A,[K:treble]ED | C6 z2 | C,,C .E2 E,,C .E2 | %29
 F,,[K:treble]C .F2[K:bass] C,,C .E2 | C,,C .E2 E,,C .E2 | D,,B, .F2 G,,B, .F2 | %32
 C,,C .E2 E,,C .E2 | F,,[K:treble]C .F2[K:bass] C,,C .E2 | E,,C .E2 G,,B, .F2 | C,,C .E2 E,,C .E2 | %36
 F,,[K:treble]C .F2[K:bass] C,,C .E2 | C,,C .E2 D,,B,[K:treble] .F2 | .G,2[K:bass] C,2 C,4- | %39
 C,4 z4 |] %40
V:4
 z4 B,2 B,2 | _B,2 B,2 A,2 ^G,2 | G,2 G,2 G,2 G,2 | [C,G,]6 z2 | C,2 C,C, C,4 | C,2 C,C, D,2 D,2 | %6
 C,2 C,C, F,2 F,2 | z2 G,,2 C,4 | C,2 C,C, C,4 | C,2 C,C, D,2 D,2 | C,2 C,C, F,2 F,2 | %11
 z2 G,,2 C,4 | z8 | z8 | z8 | z4 z2 G,,2 | C,2 C,C, C,4 | C,2 C,C, D,2 D,2 | C,2 C,C, F,2 F,2 | %19
 z2 G,,2 C,4 | z2 .A,2 z2 .A,2 | z2 .^G,2 z2 .G,2 | z2 .A,2 z2 .A,2 | z4 [E,^G,B,]2 z2 | %24
 E,2 E,>E, E,2 E,2 | E,2 E,>E, A,2 A,2 | z4 z2 E,E, | A,6 z2 | z [E,G,] .[G,C]2 z [E,G,] .[G,C]2 | %29
 z [F,A,] .[A,C]2 z [E,G,] .[G,C]2 | z [E,G,] .[G,C]2 z [E,G,] .[G,C]2 | %31
 z [F,G,] .[G,B,]2 z [F,G,] .[G,B,]2 | z [E,G,] .[G,C]2 z [E,G,] .[G,C]2 | %33
 z [F,A,] .[A,C]2 z [E,G,] .[G,C]2 | z [E,G,] .[G,C]2 z [F,G,] .[G,B,]2 | %35
 z [E,G,] .[G,C]2 z [E,G,] .[G,C]2 | z [F,A,] .[A,C]2 z [E,G,] .[G,C]2 | %37
 z [E,G,] .[G,C]2 z [F,G,] .[G,B,]2 | .[C,E,]2 [C,,G,,]2 [C,,G,,]4- | [C,,G,,]4 z4 |] %40
V:5
 x8 | x8 | x8 | x8 | x8 | x4[K:bass] x4 | x8 | x8 | x8 | x4[K:bass] x4 | x8 | x8 | x8 | x8 | x8 | %15
 z4 G,,2 z2 | x8 | x4[K:bass] x4 | x8 | x8 | x8 | x8 | x8 | x8 | x8 | x8 | x6[K:treble] x2 | x8 | %28
 x8 | x[K:treble] x3[K:bass] x4 | x8 | x8 | x8 | x[K:treble] x3[K:bass] x4 | x8 | x8 | %36
 x[K:treble] x3[K:bass] x4 | x6[K:treble] x2 | x2[K:bass] x6 | x8 |] %40

